X:2325
L:1/16
M:2/4
K:A
 cB |"A" Acea c'e'c'a | ec'ae caec | AecA EcAc |"E7" dcBA GABG |"A" Acea c'e'c'a | ec'ae caec | 
 AecA EcAc |"E7" dcBc"A" A2 :: Bc |"E7" dcBA GABG |"A" ABcd efec |"E7" dcBA GABG |"A" ABcd e2Bc | 
"E7" dcBA GABG |"A" ABcd efec |"D" dfed"A" cedc |"E7" BdcB"A" A2 ::[K:D] A2 |"D" [Fd]4 [DA]2[Fd]2 | 
 [df]4 [Ae]2[df]2 | [fa]4 [fb]2[fa]2 | [fd']6 a2 |"D" d'afd afdA | fdAF dAFD |"A7" ABcd ecAc | 
"D" dBAF D2 :: DB, |"D" A,B,DF Adfb | afdg fdAe | dAFB AFDF | GFED CB,A,G, |"D" A,B,DF Adfb | 
 afdg fdAe | dAFB AFDF |"A7" GFEF"D" D2 :|

